dist/files/navbar_invoicing.svg

<svg width="36" height="42" viewBox="0 0 36 42" fill="none" xmlns="http://www.w3.org/2000/svg">
<mask id="mask0_5175_1939" style="mask-type:luminance" maskUnits="userSpaceOnUse" x="0" y="0" width="36" height="42">
<path d="M0 0H36V41.7882H0V0Z" fill="white"/>
</mask>
<g mask="url(#mask0_5175_1939)">
<path d="M35.4354 -0.0351562H6.35863C6.06042 -0.0351562 5.81353 0.211731 5.81353 0.509944V26.6735C5.81353 26.9717 6.06042 27.2186 6.35863 27.2186C6.6562 27.2186 6.90373 26.9717 6.90373 26.6735V1.05504H34.8903V35.3944C34.8903 36.8043 34.3452 38.1271 33.3492 39.123C32.3532 40.1184 31.0304 40.6635 29.6199 40.6635C28.2101 40.6635 26.8866 40.1184 25.8913 39.123C24.8953 38.1271 24.3502 36.8043 24.3502 35.3944C24.3502 35.2495 24.2917 35.1111 24.1897 35.0091C24.0884 34.9078 23.95 34.8493 23.8044 34.8493H6.90373V32.4876C6.90373 32.1894 6.6562 31.9425 6.35863 31.9425C6.06042 31.9425 5.81353 32.1894 5.81353 32.4876V34.8493H0.543147C0.244934 34.8493 -0.00195312 35.0968 -0.00195312 35.3944C-0.00195312 37.0953 0.659444 38.6871 1.85879 39.8929C3.05814 41.0923 4.65771 41.7537 6.35863 41.7537H29.6199C31.3215 41.7537 32.9133 41.0923 34.1198 39.8929C35.3191 38.6942 35.9812 37.0953 35.9812 35.3944V0.509944C35.9812 0.211731 35.7336 -0.0351562 35.4354 -0.0351562ZM6.35863 40.6635C4.94813 40.6635 3.62533 40.1184 2.62934 39.123C1.76394 38.2583 1.23378 37.146 1.11748 35.9395H23.2886C23.412 37.4371 24.0591 38.8177 25.1279 39.8929C25.4183 40.184 25.7308 40.438 26.0583 40.6635H6.35863ZM5.81353 30.3072V28.8539C5.81353 28.5556 6.06042 28.3088 6.35863 28.3088C6.6562 28.3088 6.90373 28.5556 6.90373 28.8539V30.3072C6.90373 30.6054 6.6562 30.8523 6.35863 30.8523C6.06042 30.8523 5.81353 30.6054 5.81353 30.3072ZM9.62988 9.776C9.33167 9.776 9.08413 9.52911 9.08413 9.2309V4.87075C9.08413 4.57253 9.33167 4.32564 9.62988 4.32564C9.92745 4.32564 10.175 4.57253 10.175 4.87075V9.2309C10.175 9.52911 9.92745 9.776 9.62988 9.776ZM11.8103 9.776C11.5121 9.776 11.2652 9.52911 11.2652 9.2309V4.87075C11.2652 4.61606 11.44 4.39841 11.6868 4.33994C11.9337 4.28211 12.1884 4.39841 12.2976 4.62321L13.4462 6.91991V4.87075C13.4462 4.57253 13.6931 4.32564 13.9913 4.32564C14.2895 4.32564 14.5364 4.57253 14.5364 4.87075V9.2309C14.5364 9.48558 14.3617 9.70323 14.1148 9.7617C14.0712 9.76885 14.0277 9.776 13.9913 9.776C13.7873 9.776 13.5989 9.6597 13.5041 9.47843L12.3554 7.18174V9.2309C12.3554 9.52911 12.1085 9.776 11.8103 9.776ZM16.7175 9.36214L15.6416 5.00134C15.5688 4.71092 15.7501 4.4127 16.0411 4.33994C16.3322 4.26717 16.6298 4.44909 16.7025 4.73951L17.2548 6.98553L17.8291 4.73951C17.9019 4.44909 18.2001 4.26717 18.4912 4.34708C18.7816 4.41985 18.9564 4.71807 18.8836 5.00848L17.7784 9.36928C17.7206 9.60902 17.5023 9.78379 17.2476 9.78379C17.0008 9.78379 16.7825 9.60902 16.7175 9.36928V9.36214ZM22.8962 8.1407V5.96095C22.8962 5.05981 22.162 4.32564 21.2602 4.32564C20.3591 4.32564 19.6249 5.05981 19.6249 5.96095V8.1407C19.6249 9.04248 20.3591 9.776 21.2602 9.776C22.162 9.776 22.8962 9.04248 22.8962 8.1407ZM20.7151 8.1407V5.96095C20.7151 5.66273 20.9626 5.41585 21.2602 5.41585C21.5584 5.41585 21.806 5.66273 21.806 5.96095V8.1407C21.806 8.43891 21.5584 8.6858 21.2602 8.6858C20.9626 8.6858 20.7151 8.43891 20.7151 8.1407ZM24.1683 9.776C23.8701 9.776 23.6232 9.52911 23.6232 9.2309V4.87075C23.6232 4.57253 23.8701 4.32564 24.1683 4.32564C24.4665 4.32564 24.7134 4.57253 24.7134 4.87075V9.2309C24.7134 9.52911 24.4665 9.776 24.1683 9.776ZM27.0107 5.89533C26.7054 6.20069 26.5306 6.62234 26.5306 7.05115C26.5306 7.47995 26.7054 7.90096 27.0107 8.20632C27.3232 8.51168 27.7299 8.6858 28.1665 8.6858C28.4641 8.6858 28.7116 8.93333 28.7116 9.2309C28.7116 9.52911 28.4641 9.776 28.1665 9.776C27.4395 9.776 26.756 9.49273 26.2402 8.97686C25.7308 8.46815 25.4404 7.76322 25.4404 7.05115C25.4404 6.33842 25.7308 5.6335 26.2402 5.12478C26.756 4.60891 27.4395 4.32564 28.1665 4.32564C28.4641 4.32564 28.7116 4.57253 28.7116 4.87075C28.7116 5.16831 28.4641 5.41585 28.1665 5.41585C27.7299 5.41585 27.3161 5.58282 27.0107 5.89533ZM30.5289 5.41585V6.50605H31.4378C31.7353 6.50605 31.9829 6.75293 31.9829 7.05115C31.9829 7.34871 31.7353 7.5956 31.4378 7.5956H30.5289V8.6858H32.1642C32.4624 8.6858 32.7099 8.93333 32.7099 9.2309C32.7099 9.52911 32.4624 9.776 32.1642 9.776H29.9838C29.6855 9.776 29.4387 9.52911 29.4387 9.2309V4.87075C29.4387 4.57253 29.6855 4.32564 29.9838 4.32564H32.1642C32.4624 4.32564 32.7099 4.57253 32.7099 4.87075C32.7099 5.16831 32.4624 5.41585 32.1642 5.41585H30.5289ZM8.72095 13.5917V26.6735C8.72095 26.9717 8.96784 27.2186 9.26605 27.2186H32.528C32.8262 27.2186 33.0731 26.9717 33.0731 26.6735V13.5917C33.0731 13.2935 32.8262 13.0466 32.528 13.0466H9.26605C8.96784 13.0466 8.72095 13.2935 8.72095 13.5917ZM31.9829 21.7676H15.6266V18.4976H31.9829V21.7676ZM14.5364 21.7676H9.81115V18.4976H14.5364V21.7676ZM9.81115 22.8577H14.5364V26.1284H9.81115V22.8577ZM15.6266 26.1284V22.8577H31.9829V26.1284H15.6266ZM31.9829 17.4074H15.6266V14.1368H31.9829V17.4074ZM9.81115 14.1368H14.5364V17.4074H9.81115V14.1368ZM8.72095 32.4876C8.72095 32.1894 8.96784 31.9425 9.26605 31.9425H16.5356C16.8338 31.9425 17.0807 32.1894 17.0807 32.4876C17.0807 32.7852 16.8338 33.0327 16.5356 33.0327H9.26605C8.96784 33.0327 8.72095 32.7852 8.72095 32.4876Z" fill="#000066"/>
</g>
</svg>

<svg xmlns="http://www.w3.org/2000/svg" width="36" height="42" fill="none"><mask id="a" width="36" height="42" x="0" y="0" maskUnits="userSpaceOnUse" style="mask-type:luminance"><path fill="#fff" d="M0 0h36v41.788H0V0Z"/></mask><g mask="url(#a)"><path fill="#006" d="M35.435-.035H6.36a.549.549 0 0 0-.545.545v26.163c0 .299.246.546.545.546a.55.55 0 0 0 .545-.546V1.056H34.89v34.34c0 1.41-.545 2.732-1.54 3.728a5.235 5.235 0 0 1-3.73 1.54 5.234 5.234 0 0 1-3.729-1.54 5.233 5.233 0 0 1-1.54-3.729.546.546 0 0 0-.547-.545h-16.9v-2.361a.55.55 0 0 0-.545-.546.549.549 0 0 0-.545.546v2.361H.544a.55.55 0 0 0-.546.545c0 1.701.661 3.293 1.86 4.499a6.323 6.323 0 0 0 4.5 1.86H29.62a6.335 6.335 0 0 0 4.5-1.86 6.32 6.32 0 0 0 1.861-4.499V.51a.55.55 0 0 0-.546-.545ZM6.36 40.664a5.235 5.235 0 0 1-3.73-1.541 5.183 5.183 0 0 1-1.512-3.183H23.29a6.315 6.315 0 0 0 1.839 3.953c.29.291.603.545.93.77h-19.7Zm-.545-10.357v-1.453c0-.298.246-.545.545-.545a.55.55 0 0 1 .545.545v1.453a.55.55 0 0 1-.545.545.549.549 0 0 1-.545-.545ZM9.63 9.776a.55.55 0 0 1-.546-.545V4.87a.55.55 0 0 1 .546-.545.55.55 0 0 1 .545.545v4.36a.55.55 0 0 1-.545.545Zm2.18 0a.549.549 0 0 1-.545-.545V4.87c0-.255.175-.473.422-.531a.54.54 0 0 1 .61.283l1.15 2.297V4.87c0-.297.246-.544.544-.544.299 0 .545.247.545.545v4.36a.545.545 0 0 1-.421.53.553.553 0 0 1-.61-.283l-1.15-2.296V9.23a.549.549 0 0 1-.545.545Zm4.908-.414-1.076-4.36a.549.549 0 0 1 .4-.662.55.55 0 0 1 .66.4l.553 2.246.574-2.246a.545.545 0 0 1 1.055.269l-1.106 4.36a.546.546 0 0 1-1.06 0v-.007Zm6.178-1.221V5.96c0-.901-.734-1.635-1.636-1.635-.9 0-1.635.734-1.635 1.635v2.18c0 .901.734 1.635 1.635 1.635.902 0 1.636-.734 1.636-1.635Zm-2.18 0V5.96a.55.55 0 0 1 .544-.545.55.55 0 0 1 .546.545v2.18a.55.55 0 0 1-.546.545.55.55 0 0 1-.545-.545Zm3.452 1.635a.549.549 0 0 1-.545-.545V4.87c0-.298.247-.545.545-.545.299 0 .545.247.545.545v4.36a.549.549 0 0 1-.545.545Zm2.843-3.88c-.306.305-.48.726-.48 1.155 0 .429.174.85.48 1.155.312.306.719.48 1.155.48a.55.55 0 0 1 .546.545.55.55 0 0 1-.546.545c-.727 0-1.41-.283-1.926-.8a2.745 2.745 0 0 1-.8-1.925c0-.713.29-1.418.8-1.926.516-.516 1.2-.8 1.927-.8a.55.55 0 0 1 .545.546.55.55 0 0 1-.546.545c-.436 0-.85.167-1.155.48Zm3.518-.48v1.09h.909a.55.55 0 0 1 .545.545.55.55 0 0 1-.545.545h-.91v1.09h1.636a.55.55 0 0 1 .546.545.55.55 0 0 1-.546.545h-2.18a.549.549 0 0 1-.545-.545V4.87c0-.298.247-.545.545-.545h2.18a.55.55 0 0 1 .546.545.55.55 0 0 1-.546.545H30.53ZM8.72 13.592v13.082c0 .298.247.545.545.545h23.262a.549.549 0 0 0 .545-.546V13.593a.549.549 0 0 0-.545-.545H9.266a.549.549 0 0 0-.545.545Zm23.262 8.176H15.627v-3.27h16.356v3.27Zm-17.447 0H9.811v-3.27h4.725v3.27Zm-4.725 1.09h4.725v3.27H9.811v-3.27Zm5.816 3.27v-3.27h16.356v3.27H15.627Zm16.356-8.72H15.627v-3.271h16.356v3.27ZM9.81 14.136h4.725v3.27H9.811v-3.27Zm-1.09 18.35c0-.298.247-.545.545-.545h7.27c.298 0 .545.247.545.546a.55.55 0 0 1-.545.545h-7.27a.55.55 0 0 1-.545-.545Z"/></g></svg>
